X: 82
T: Wo ai mao zhuxi
L: 1/16
M: 2/4
K: C
A2c6 [I:setbarnb 1]| 
d2 e2 d c A2 | 
A2 c2 A2 A2 | 
d2 e cd4 | 
c d e cd4 | 
d c A d c A3 | 
c2 A G2< A2 z | 
d2 e2 d2 c A | 
A2 c AA4 | 
d2 e2 d2 c A | 
A2 c A A2 z2 | 
A2c6 | 
d c A G A2 z2 | 
d2 e2 d2 c A | 
d2 e cd4 | 
c d e cd4 | 
d c A d c A3 | 
c2 A G A2 z2 | 
d2 e2 d2 c A | 
A2 c AA4 | 
d2 e2 d2 c A | 
A2 c AA4 |]

@@@ Tune index: 8750
